public/assets/items/fox.svg

<svg width="240" height="240" viewBox="0 0 240 240" fill="none" xmlns="http://www.w3.org/2000/svg">
<g clip-path="url(#clip0)">
<g opacity="0.1" filter="url(#filter0_f)">
<rect x="162.896" y="196.602" width="163.598" height="90.327" transform="rotate(-151.28 162.896 196.602)" fill="#61FFFF"/>
<rect x="162.643" y="195.734" width="162.32" height="89.0486" transform="rotate(-151.28 162.643 195.734)" stroke="black" stroke-width="1.27836"/>
</g>
<g filter="url(#filter1_d)">
<path d="M142.522 85.7957L173.44 54M142.522 85.7957L119.333 89.6497M142.522 85.7957L146.87 104.102M173.44 54L174.406 110.847M173.44 54L160.879 93.5036M174.406 110.847L160.879 93.5036M174.406 110.847L179.72 122.409M119.333 89.6497L96.1449 85.7956M119.333 89.6497V129.876M129.478 180.219L119.333 186L109.188 180.219M129.478 180.219L119.333 170.102M129.478 180.219L171.507 153.241M129.478 180.219L151.217 126.263M119.333 170.102L109.188 180.219M119.333 170.102V129.876M96.1449 85.7956L65.7102 54M96.1449 85.7956L91.7971 104.102M65.7102 54L64.2609 110.847M65.7102 54L77.7875 93.5036M64.2609 110.847L77.7875 93.5036M64.2609 110.847L58.9469 122.409M109.188 180.219L67.1594 153.241M109.188 180.219L87.4493 126.263M77.7875 93.5036L91.7971 104.102M160.879 93.5036L146.87 104.102M67.1594 153.241L52.6667 135.416L58.9469 122.409M67.1594 153.241L87.4493 126.263M171.507 153.241L186 135.416L179.72 122.409M171.507 153.241L151.217 126.263M58.9469 122.409L87.4493 126.263M87.4493 126.263L91.7971 104.102M87.4493 126.263L119.333 129.876M179.72 122.409L151.217 126.263M151.217 126.263L146.87 104.102M151.217 126.263L119.333 129.876M91.7971 104.102L119.333 129.876M146.87 104.102L119.333 129.876" stroke="white" stroke-width="3"/>
</g>
</g>
<defs>
<filter id="filter0_f" x="-30.5762" y="-11.2261" width="286.877" height="257.828" filterUnits="userSpaceOnUse" color-interpolation-filters="sRGB">
<feFlood flood-opacity="0" result="BackgroundImageFix"/>
<feBlend mode="normal" in="SourceGraphic" in2="BackgroundImageFix" result="shape"/>
<feGaussianBlur stdDeviation="25" result="effect1_foregroundBlur"/>
</filter>
<filter id="filter1_d" x="35.9014" y="35.3601" width="166.864" height="167.366" filterUnits="userSpaceOnUse" color-interpolation-filters="sRGB">
<feFlood flood-opacity="0" result="BackgroundImageFix"/>
<feColorMatrix in="SourceAlpha" type="matrix" values="0 0 0 0 0 0 0 0 0 0 0 0 0 0 0 0 0 0 127 0"/>
<feOffset/>
<feGaussianBlur stdDeviation="7.5"/>
<feColorMatrix type="matrix" values="0 0 0 0 1 0 0 0 0 1 0 0 0 0 1 0 0 0 0.75 0"/>
<feBlend mode="normal" in2="BackgroundImageFix" result="effect1_dropShadow"/>
<feBlend mode="normal" in="SourceGraphic" in2="effect1_dropShadow" result="shape"/>
</filter>
<clipPath id="clip0">
<rect width="240" height="240" fill="white"/>
</clipPath>
</defs>
</svg>

<svg width="240" height="240" fill="none" xmlns="http://www.w3.org/2000/svg"><g filter="url(#filter0_f)"><path d="M142.522 85.796L173.44 54m-30.918 31.796l-23.189 3.854m23.189-3.854l4.348 18.306M173.44 54l.966 56.847M173.44 54l-12.561 39.504m13.527 17.343l-13.527-17.343m13.527 17.343l5.314 11.562m-60.387-32.76l-23.188-3.853m23.188 3.854v40.226m10.145 50.343L119.333 186l-10.145-5.781m20.29 0l-10.145-10.117m10.145 10.117l42.029-26.978m-42.029 26.978l21.739-53.956m-31.884 43.839l-10.145 10.117m10.145-10.117v-40.226m-23.188-44.08L65.71 54m30.435 31.796l-4.348 18.306M65.71 54l-1.45 56.847M65.71 54l12.078 39.504M64.26 110.847l13.526-17.343m-13.526 17.343l-5.314 11.562m50.241 57.81l-42.029-26.978m42.029 26.978l-21.739-53.956m-9.662-32.76l14.01 10.599m69.082-10.598l-14.009 10.598m-79.71 49.139l-14.493-17.825 6.28-13.007m8.212 30.832l20.29-26.978m84.058 26.978L186 135.416l-6.28-13.007m-8.213 30.832l-20.29-26.978m-92.27-3.854l28.502 3.854m0 0l4.348-22.161m-4.348 22.161l31.884 3.613m60.387-7.467l-28.503 3.854m0 0l-4.347-22.161m4.347 22.161l-31.884 3.613m-27.536-25.774l27.536 25.774m27.537-25.774l-27.537 25.774" stroke="#fff" stroke-width="3"/></g><path d="M142.522 85.796L173.44 54m-30.918 31.796l-23.189 3.854m23.189-3.854l4.348 18.306M173.44 54l.966 56.847M173.44 54l-12.561 39.504m13.527 17.343l-13.527-17.343m13.527 17.343l5.314 11.562m-60.387-32.76l-23.188-3.853m23.188 3.854v40.226m10.145 50.343L119.333 186l-10.145-5.781m20.29 0l-10.145-10.117m10.145 10.117l42.029-26.978m-42.029 26.978l21.739-53.956m-31.884 43.839l-10.145 10.117m10.145-10.117v-40.226m-23.188-44.08L65.71 54m30.435 31.796l-4.348 18.306M65.71 54l-1.45 56.847M65.71 54l12.078 39.504M64.26 110.847l13.526-17.343m-13.526 17.343l-5.314 11.562m50.241 57.81l-42.029-26.978m42.029 26.978l-21.739-53.956m-9.662-32.76l14.01 10.599m69.082-10.598l-14.009 10.598m-79.71 49.139l-14.493-17.825 6.28-13.007m8.212 30.832l20.29-26.978m84.058 26.978L186 135.416l-6.28-13.007m-8.213 30.832l-20.29-26.978m-92.27-3.854l28.502 3.854m0 0l4.348-22.161m-4.348 22.161l31.884 3.613m60.387-7.467l-28.503 3.854m0 0l-4.347-22.161m4.347 22.161l-31.884 3.613m-27.536-25.774l27.536 25.774m27.537-25.774l-27.537 25.774" stroke="#fff" stroke-width="3"/><defs><filter id="filter0_f" x="35.901" y="35.36" width="166.864" height="167.366" filterUnits="userSpaceOnUse" color-interpolation-filters="sRGB"><feFlood flood-opacity="0" result="BackgroundImageFix"/><feBlend in="SourceGraphic" in2="BackgroundImageFix" result="shape"/><feGaussianBlur stdDeviation="7.5" result="effect1_foregroundBlur"/></filter></defs></svg>
